packages/components/src/telekom/icons/home/no-wifi/selected.svg

<?xml version="1.0" encoding="UTF-8"?>
<svg width="24px" height="24px" viewBox="0 0 24 24" version="1.1" xmlns="http://www.w3.org/2000/svg" xmlns:xlink="http://www.w3.org/1999/xlink">
    <title>/svg/icon/home/no-wifi/selected</title>
    <g id="icon/home/no-wifi/selected" stroke="none" stroke-width="1" fill="none" fill-rule="evenodd">
        <path d="M12,18 C13.1045695,18 14,18.8954305 14,20 C14,21.1045695 13.1045695,22 12,22 C10.8954305,22 9.99999999,21.1045695 9.99999999,20 C9.99999999,18.8954305 10.8954305,18 12,18 Z M1.56999996,1.96999996 C1.83363632,1.70181814 2.25016525,1.67743797 2.54535684,1.89685946 L2.62999996,1.96999996 L20.63,19.97 C20.925,20.26 20.925,20.735 20.63,21.03 C20.485,21.175 20.29,21.25 20.1,21.25 C19.948,21.25 19.7928,21.202 19.66256,21.10856 L19.57,21.03 L1.56999996,3.02999996 C1.27499996,2.73999996 1.27999996,2.26499996 1.56999996,1.96999996 Z M10.185,13.765 L11.925,15.5 C10.3118182,15.5286364 8.90820247,16.400093 8.13597716,17.6925456 L8.02999998,17.88 L6.59499998,16.39 C7.38249998,15.2134375 8.54353514,14.3137305 9.90919067,13.851554 L10.185,13.765 Z M12,8.99999999 C15.3495,8.99999999 18.3485834,10.4997833 20.3649426,12.8625261 L20.57,13.11 L19.165,14.57 C17.9760527,13.0021053 16.2889889,11.8380886 14.3418844,11.3117743 L14.015,11.23 L11.79,9.00499999 L12,8.99999999 L12,8.99999999 Z M6.75499998,10.335 L8.24499998,11.825 C6.99884613,12.4019231 5.90606506,13.2515089 5.04530948,14.30297 L4.83499997,14.57 L3.42999996,13.11 C4.2572727,12.0827273 5.26636361,11.2083471 6.40843724,10.5319384 L6.75499998,10.335 Z M3.47999996,7.05999998 L4.92499997,8.50499999 C3.84055552,9.1761111 2.85487651,9.99734567 1.99956786,10.9406104 L1.68499996,11.3 L0.289999951,9.85499999 C1.11666662,8.90388888 2.05790119,8.05549381 3.08912205,7.32737309 L3.47999996,7.05999998 Z M12,4.49999997 C16.542353,4.49999997 20.6231056,6.45473614 23.4605019,9.56873752 L23.715,9.85499999 L22.32,11.3 C19.845,8.36499998 16.14,6.49999997 12,6.49999997 C11.32,6.49999997 10.6528,6.55439997 10.00096,6.65295998 L9.51499999,6.73499998 L7.84499998,5.06499997 C9.16999999,4.69999997 10.56,4.49999997 12,4.49999997 Z" id="Icon" fill="#000000"></path>
    </g>
</svg>

<svg width="24" height="24" xmlns="http://www.w3.org/2000/svg"><path d="M12 18a2 2 0 110 4 2 2 0 010-4zM1.57 1.97a.744.744 0 01.975-.073l.085.073 18 18a.745.745 0 010 1.06.754.754 0 01-.53.22.755.755 0 01-.437-.141l-.093-.079-18-18a.75.75 0 010-1.06zm8.615 11.795l1.74 1.735a4.5 4.5 0 00-3.789 2.193l-.106.187-1.435-1.49a6.495 6.495 0 013.314-2.538l.276-.087zM12 9c3.35 0 6.349 1.5 8.365 3.863l.205.247-1.405 1.46a9.012 9.012 0 00-4.823-3.258l-.327-.082-2.225-2.225L12 9zm-5.245 1.335l1.49 1.49a9.047 9.047 0 00-3.2 2.478l-.21.267-1.405-1.46a11.063 11.063 0 012.978-2.578l.347-.197zM3.48 7.06l1.445 1.445A13.644 13.644 0 002 10.941l-.315.359L.29 9.855c.827-.951 1.768-1.8 2.8-2.528l.39-.267zM12 4.5c4.542 0 8.623 1.955 11.46 5.069l.255.286L22.32 11.3a13.465 13.465 0 00-12.319-4.647l-.486.082-1.67-1.67A15.608 15.608 0 0112 4.5z" fill="#000" fill-rule="evenodd"/></svg>
